X: 329
T:When Daylight Shines
% Nottingham Music Database
Y:AABBCC
S:Kevin Briggs, via EF
M:6/8
K:G
P:A
|:d|"G"gfe dcB|"D7"d2c A2B|"Am"cBc "D7"e2d|"G"B3 GBd|
"G"gfe dcB|"D7"d2c A2B|"Am"cBc "D7"e2F|"G"G3 -G2:|
P:B
|:D|"G"G2A B2c|"G"d3 B2d|"C"e2d "D7"c2d|"G"B3 G2D|"G"G2A B2c|"G"d3 g2g|\
"D7"fed cBA|"G"G3 -G2:|
P:C
|:d|"G"dcB BAG|"D7"F2A e2c|"G"ded "D7"c2d|"G"B3 GBd|
"G"dcB BAG|"D7"F2A e2c|"Em"d2B "D7"dcA|"G"G3 -G2:|


